icons/svg/poi_colored/pumping_station.svg

<?xml version="1.0" encoding="UTF-8" standalone="no"?>
<!-- Created with Inkscape (http://www.inkscape.org/) -->

<svg
   xmlns:dc="http://purl.org/dc/elements/1.1/"
   xmlns:cc="http://creativecommons.org/ns#"
   xmlns:rdf="http://www.w3.org/1999/02/22-rdf-syntax-ns#"
   xmlns:svg="http://www.w3.org/2000/svg"
   xmlns="http://www.w3.org/2000/svg"
   xmlns:xlink="http://www.w3.org/1999/xlink"
   xmlns:sodipodi="http://sodipodi.sourceforge.net/DTD/sodipodi-0.dtd"
   xmlns:inkscape="http://www.inkscape.org/namespaces/inkscape"
   version="1.0"
   width="580"
   height="580"
   id="svg2"
   sodipodi:version="0.32"
   inkscape:version="0.91 r"
   sodipodi:docname="pumping_station.svg"
   inkscape:output_extension="org.inkscape.output.svg.inkscape">
  <metadata
     id="metadata2975">
    <rdf:RDF>
      <cc:Work
         rdf:about="">
        <dc:format>image/svg+xml</dc:format>
        <dc:type
           rdf:resource="http://purl.org/dc/dcmitype/StillImage" />
        <cc:license
           rdf:resource="http://web.resource.org/cc/PublicDomain" />
        <dc:language>en</dc:language>
        <dc:title />
      </cc:Work>
    </rdf:RDF>
  </metadata>
  <sodipodi:namedview
     inkscape:window-height="1006"
     inkscape:window-width="1920"
     inkscape:pageshadow="2"
     inkscape:pageopacity="0.0"
     guidetolerance="10.0"
     gridtolerance="10.0"
     objecttolerance="10.0"
     borderopacity="1.0"
     bordercolor="#666666"
     pagecolor="#ffffff"
     id="base"
     inkscape:zoom="0.46083856"
     inkscape:cx="376.57349"
     inkscape:cy="367.9775"
     inkscape:window-x="1680"
     inkscape:window-y="0"
     inkscape:current-layer="svg2"
     showgrid="false"
     inkscape:window-maximized="1"
     showguides="true"
     inkscape:guide-bbox="true"
     inkscape:snap-bbox="true"
     inkscape:bbox-paths="true"
     inkscape:bbox-nodes="true"
     inkscape:snap-bbox-edge-midpoints="true"
     inkscape:snap-object-midpoints="true"
     inkscape:snap-midpoints="true"
     inkscape:snap-smooth-nodes="true"
     inkscape:object-nodes="true"
     inkscape:snap-intersection-paths="true"
     inkscape:object-paths="true"
     inkscape:snap-bbox-midpoints="true"
     inkscape:snap-global="false" />
  <defs
     id="defs4">
    <inkscape:perspective
       sodipodi:type="inkscape:persp3d"
       inkscape:vp_x="0 : 290 : 1"
       inkscape:vp_y="6.1230318e-14 : 1000 : 0"
       inkscape:vp_z="580 : 290 : 1"
       inkscape:persp3d-origin="290 : 193.33333 : 1"
       id="perspective2441" />
    <inkscape:perspective
       id="perspective3452"
       inkscape:persp3d-origin="30 : 20 : 1"
       inkscape:vp_z="60 : 30 : 1"
       inkscape:vp_y="0 : 1000 : 0"
       inkscape:vp_x="0 : 30 : 1"
       sodipodi:type="inkscape:persp3d" />
    <symbol
       viewBox="244.5 110 489 219.9"
       id="symbol-university">
      <path
         id="path4460"
         d="M79,43l57,119c0,0,21-96,104-96s124,106,124,106l43-133l82-17L0,17L79,43z" />
      <path
         id="path4462"
         d="M94,176l-21,39"
         stroke-width="20"
         stroke="#000000"
         fill="none" />
      <path
         id="path4464"
         d="M300,19c0,10.5-22.6,19-50.5,19S199,29.5,199,19s22.6-19,50.5-19S300,8.5,300,19z" />
      <path
         id="path4466"
         d="M112,216l-16-38L64,88c0,0-9-8-4-35s16-24,16-24"
         stroke-width="20"
         stroke="#000000"
         ill="none" />
    </symbol>
    <inkscape:perspective
       id="perspective4471"
       inkscape:persp3d-origin="372.04724 : 350.78739 : 1"
       inkscape:vp_z="744.09448 : 526.18109 : 1"
       inkscape:vp_y="0 : 1000 : 0"
       inkscape:vp_x="0 : 526.18109 : 1"
       sodipodi:type="inkscape:persp3d" />
    <inkscape:perspective
       id="perspective4668"
       inkscape:persp3d-origin="6 : 4 : 1"
       inkscape:vp_z="12 : 6 : 1"
       inkscape:vp_y="0 : 1000 : 0"
       inkscape:vp_x="0 : 6 : 1"
       sodipodi:type="inkscape:persp3d" />
    <inkscape:perspective
       id="perspective3826"
       inkscape:persp3d-origin="0.5 : 0.33333333 : 1"
       inkscape:vp_z="1 : 0.5 : 1"
       inkscape:vp_y="0 : 1000 : 0"
       inkscape:vp_x="0 : 0.5 : 1"
       sodipodi:type="inkscape:persp3d" />
    <inkscape:perspective
       id="perspective3855"
       inkscape:persp3d-origin="0.5 : 0.33333333 : 1"
       inkscape:vp_z="1 : 0.5 : 1"
       inkscape:vp_y="0 : 1000 : 0"
       inkscape:vp_x="0 : 0.5 : 1"
       sodipodi:type="inkscape:persp3d" />
    <inkscape:perspective
       id="perspective3909"
       inkscape:persp3d-origin="0.5 : 0.33333333 : 1"
       inkscape:vp_z="1 : 0.5 : 1"
       inkscape:vp_y="0 : 1000 : 0"
       inkscape:vp_x="0 : 0.5 : 1"
       sodipodi:type="inkscape:persp3d" />
    <inkscape:perspective
       id="perspective3950"
       inkscape:persp3d-origin="0.5 : 0.33333333 : 1"
       inkscape:vp_z="1 : 0.5 : 1"
       inkscape:vp_y="0 : 1000 : 0"
       inkscape:vp_x="0 : 0.5 : 1"
       sodipodi:type="inkscape:persp3d" />
    <inkscape:perspective
       id="perspective3972"
       inkscape:persp3d-origin="0.5 : 0.33333333 : 1"
       inkscape:vp_z="1 : 0.5 : 1"
       inkscape:vp_y="0 : 1000 : 0"
       inkscape:vp_x="0 : 0.5 : 1"
       sodipodi:type="inkscape:persp3d" />
    <inkscape:perspective
       id="perspective3994"
       inkscape:persp3d-origin="0.5 : 0.33333333 : 1"
       inkscape:vp_z="1 : 0.5 : 1"
       inkscape:vp_y="0 : 1000 : 0"
       inkscape:vp_x="0 : 0.5 : 1"
       sodipodi:type="inkscape:persp3d" />
    <inkscape:perspective
       id="perspective4016"
       inkscape:persp3d-origin="0.5 : 0.33333333 : 1"
       inkscape:vp_z="1 : 0.5 : 1"
       inkscape:vp_y="0 : 1000 : 0"
       inkscape:vp_x="0 : 0.5 : 1"
       sodipodi:type="inkscape:persp3d" />
    <inkscape:perspective
       id="perspective4837"
       inkscape:persp3d-origin="0.5 : 0.33333333 : 1"
       inkscape:vp_z="1 : 0.5 : 1"
       inkscape:vp_y="0 : 1000 : 0"
       inkscape:vp_x="0 : 0.5 : 1"
       sodipodi:type="inkscape:persp3d" />
    <inkscape:perspective
       id="perspective4971"
       inkscape:persp3d-origin="0.5 : 0.33333333 : 1"
       inkscape:vp_z="1 : 0.5 : 1"
       inkscape:vp_y="0 : 1000 : 0"
       inkscape:vp_x="0 : 0.5 : 1"
       sodipodi:type="inkscape:persp3d" />
    <inkscape:perspective
       id="perspective6216"
       inkscape:persp3d-origin="0.5 : 0.33333333 : 1"
       inkscape:vp_z="1 : 0.5 : 1"
       inkscape:vp_y="0 : 1000 : 0"
       inkscape:vp_x="0 : 0.5 : 1"
       sodipodi:type="inkscape:persp3d" />
    <inkscape:perspective
       id="perspective6764"
       inkscape:persp3d-origin="0.5 : 0.33333333 : 1"
       inkscape:vp_z="1 : 0.5 : 1"
       inkscape:vp_y="0 : 1000 : 0"
       inkscape:vp_x="0 : 0.5 : 1"
       sodipodi:type="inkscape:persp3d" />
    <inkscape:perspective
       id="perspective6817"
       inkscape:persp3d-origin="0.5 : 0.33333333 : 1"
       inkscape:vp_z="1 : 0.5 : 1"
       inkscape:vp_y="0 : 1000 : 0"
       inkscape:vp_x="0 : 0.5 : 1"
       sodipodi:type="inkscape:persp3d" />
    <radialGradient
       gradientUnits="userSpaceOnUse"
       gradientTransform="scale(0.79354273,1.2601716)"
       xlink:href="#linearGradient829"
       id="radialGradient874"
       cx="180.2453"
       cy="198.41902"
       r="101.58017"
       fx="180.2453"
       fy="198.41902" />
    <linearGradient
       id="linearGradient829">
      <stop
         style="stop-color: rgb(255, 255, 255); stop-opacity: 0.341667;"
         offset="0.0000000"
         id="stop830" />
      <stop
         style="stop-color: rgb(255, 255, 255); stop-opacity: 0;"
         offset="1.0000000"
         id="stop831" />
    </linearGradient>
    <radialGradient
       gradientUnits="userSpaceOnUse"
       gradientTransform="scale(1.007004,0.99304475)"
       xlink:href="#linearGradient829"
       id="radialGradient832"
       cx="360.85146"
       cy="167.47372"
       r="46.394721"
       fx="360.85146"
       fy="167.47372" />
    <linearGradient
       id="linearGradient6826">
      <stop
         style="stop-color: rgb(255, 255, 255); stop-opacity: 0.341667;"
         offset="0.0000000"
         id="stop6828" />
      <stop
         style="stop-color: rgb(255, 255, 255); stop-opacity: 0;"
         offset="1.0000000"
         id="stop6830" />
    </linearGradient>
    <linearGradient
       gradientUnits="userSpaceOnUse"
       gradientTransform="scale(0.74491357,1.3424376)"
       xlink:href="#linearGradient855"
       id="linearGradient850"
       x1="465.29425"
       y1="248.24467"
       x2="463.27056"
       y2="405.7687"
       spreadMethod="pad" />
    <linearGradient
       id="linearGradient855">
      <stop
         style="stop-color: rgb(255, 255, 255); stop-opacity: 0;"
         offset="0.0000000"
         id="stop856" />
      <stop
         style="stop-color: rgb(255, 166, 23); stop-opacity: 0.733333;"
         offset="1.0000000"
         id="stop857" />
    </linearGradient>
    <linearGradient
       gradientUnits="userSpaceOnUse"
       gradientTransform="scale(1.4586159,0.68558144)"
       xlink:href="#linearGradient855"
       id="linearGradient854"
       x1="157.80581"
       y1="120.96176"
       x2="155.40575"
       y2="231.63491" />
    <linearGradient
       id="linearGradient6837">
      <stop
         style="stop-color: rgb(255, 255, 255); stop-opacity: 0;"
         offset="0.0000000"
         id="stop6839" />
      <stop
         style="stop-color: rgb(255, 166, 23); stop-opacity: 0.733333;"
         offset="1.0000000"
         id="stop6841" />
    </linearGradient>
    <inkscape:perspective
       id="perspective6928"
       inkscape:persp3d-origin="0.5 : 0.33333333 : 1"
       inkscape:vp_z="1 : 0.5 : 1"
       inkscape:vp_y="0 : 1000 : 0"
       inkscape:vp_x="0 : 0.5 : 1"
       sodipodi:type="inkscape:persp3d" />
    <inkscape:perspective
       id="perspective10781"
       inkscape:persp3d-origin="0.5 : 0.33333333 : 1"
       inkscape:vp_z="1 : 0.5 : 1"
       inkscape:vp_y="0 : 1000 : 0"
       inkscape:vp_x="0 : 0.5 : 1"
       sodipodi:type="inkscape:persp3d" />
    <inkscape:perspective
       id="perspective10806"
       inkscape:persp3d-origin="0.5 : 0.33333333 : 1"
       inkscape:vp_z="1 : 0.5 : 1"
       inkscape:vp_y="0 : 1000 : 0"
       inkscape:vp_x="0 : 0.5 : 1"
       sodipodi:type="inkscape:persp3d" />
    <inkscape:perspective
       id="perspective10878"
       inkscape:persp3d-origin="0.5 : 0.33333333 : 1"
       inkscape:vp_z="1 : 0.5 : 1"
       inkscape:vp_y="0 : 1000 : 0"
       inkscape:vp_x="0 : 0.5 : 1"
       sodipodi:type="inkscape:persp3d" />
    <inkscape:perspective
       id="perspective10919"
       inkscape:persp3d-origin="0.5 : 0.33333333 : 1"
       inkscape:vp_z="1 : 0.5 : 1"
       inkscape:vp_y="0 : 1000 : 0"
       inkscape:vp_x="0 : 0.5 : 1"
       sodipodi:type="inkscape:persp3d" />
    <clipPath
       id="clipoutline2"
       clipPathUnits="userSpaceOnUse">
      <path
         inkscape:connector-curvature="0"
         d="m 55.8,12 0.76,0.16 c 8.84,-2.94 28.68,8.64 24.26,18.96 -1.12,1.62 -0.93,4.5 0.42,6.31 L 56.43,62.25 c -1.39,-1.39 -4.48,-1.36 -5.9,0 L 9.5,101.63 c -3.74,3.59 -0.8,6.64 0.78,8.25 l 7.36,7.36 c 1.61,1.6 5.86,3.76 8.88,0.56 L 65.24,76.99 c 1.35,-1.42 1.36,-4.47 0,-5.87 0,0 0.01,-0.02 0,-0.02 L 90.15,46.2 c 2.63,2.37 5.113827,2.574854 7.47,1.93 4.55057,-1.245432 7.08725,3.206643 9.81,6.46 l -1.23,1.21 c -1.82,1.84 -1.65,4.94 0.39,6.98 2.04,2.04 5.15,2.21 6.97,0.39 l 8.14,-8.13 c 1.82,-1.84 1.65,-4.94 -0.4,-6.97 -1.84,-1.85 -4.51,-2.09 -6.37,-0.77 -5.58,-6.26 -2.65,-7.2 -10.01,-15.35 L 91.13,17.86 C 81.2,8.12 68.3,8.13 55.8,12 z"
         id="outline2" />
    </clipPath>
  </defs>
  <g
     id="g1327"
     transform="translate(1.0849787,-1.0849787)">
    <path
       d="M 66.275,1.768 C 24.94,1.768 1.704,23.139 1.704,66.804 l 0,450.123 c 0,40.844 20.895,62.229 62.192,62.229 l 452.024,0 c 41.307,0 62.229,-20.315 62.229,-62.229 l 0,-450.123 c 0,-42.601 -20.922,-65.036 -63.521,-65.036 -0.004,0 -448.495,-0.143 -448.353,0 z"
       style="fill:#111111;stroke:#eeeeee;stroke-width:3.40799999"
       id="path1329"
       inkscape:connector-curvature="0"
       sodipodi:nodetypes="csssssssc" />
  </g>
  <g
     id="g3338"
     transform="matrix(1.3973279,-0.2437849,0.2437849,1.3973279,-185.07402,-56.183307)" />
  <path
     style="fill:#ffffff"
     d="m 47.072392,89.589648 0,189.357622 46.457581,-0.002 0,-106.55783 77.999997,0 0,106.55783 108.74242,0 0,-186.643175 c 1.28303,-17.60598 -4.94904,-36.13022 -36.45262,-36.13022 l -161.903882,0 c -13.177315,0 -34.843496,7.143607 -34.843496,33.417773 z"
     id="path9"
     inkscape:connector-curvature="0"
     sodipodi:nodetypes="ccccccccccc" />
  <path
     style="fill:#ffffff;fill-opacity:1;fill-rule:evenodd"
     d="M 353.70898 319.1875 C 353.27681 319.18095 352.84317 319.18448 352.4082 319.19922 C 338.11844 319.79275 322.45622 331.61529 308.48438 332.32422 C 308.23019 332.32822 307.97794 332.32722 307.72461 332.32422 L 307.72461 363.60547 C 307.97802 363.60847 308.2301 363.64112 308.48438 363.63672 C 322.45623 363.04828 338.11844 350.9258 352.4082 350.51172 C 366.32728 349.92202 378.76713 360.90083 392.79297 361.13672 C 394.41489 361.15045 396.03981 361.01854 397.66797 360.79883 L 397.66797 329.45312 C 396.0398 329.67395 394.4149 329.8067 392.79297 329.79297 C 379.20658 329.50858 367.10649 319.39069 353.70898 319.1875 z M 527.48633 319.19922 C 516.81339 319.28016 506.79764 324.67226 496.74609 328.24023 L 496.74609 359.55273 C 506.79763 355.98448 516.81338 350.5918 527.48633 350.51172 C 531.32448 350.498 535.25759 351.17152 539.23438 352.18945 L 539.23438 320.88281 C 535.2577 319.87127 531.32437 319.19922 527.48633 319.19922 z "
     id="path113" />
  <path
     style="fill:#ffffff;fill-opacity:1;fill-rule:evenodd"
     d="M 298.39062 398.88477 C 297.95844 398.87877 297.50918 398.90132 297.07422 398.91602 C 282.78446 399.50569 267.12224 411.29828 253.15039 412.00977 C 252.89621 412.01377 252.64396 412.01277 252.39062 412.00977 L 252.39062 443.32227 C 252.64395 443.32527 252.89621 443.32627 253.15039 443.32227 C 267.12224 442.61079 282.78446 430.78696 297.07422 430.19727 C 310.9933 429.72424 323.43314 440.49617 337.45898 440.79102 C 351.69595 440.90895 366.13861 430.81446 381.38086 431.22852 C 386.77813 431.31368 392.21134 432.78247 397.66797 434.61914 L 397.66797 403.30664 C 392.21134 401.46998 386.77813 400.00118 381.38086 399.91602 C 366.13862 399.50194 351.69596 409.59645 337.45898 409.47852 C 323.8726 409.19288 311.78794 399.08555 298.39062 398.88477 z M 496.74609 404.41602 L 496.74609 435.9043 C 499.63199 436.89794 502.51381 437.89579 505.37109 438.78125 C 511.21338 440.75742 517.07463 442.3453 522.94336 442.32227 C 528.44289 442.19372 533.83751 440.55622 539.23438 438.5293 L 539.23438 407.22852 C 533.83758 409.24967 528.44282 410.88123 522.94336 411.00977 C 518.01457 411.0291 513.09122 409.91035 508.17969 408.38281 L 508.17969 408.35352 C 507.64072 408.20231 507.09572 408.02091 506.55469 407.85938 C 503.27839 406.78456 500.00837 405.57094 496.74609 404.41602 z "
     id="path121" />
  <rect
     style="color:#000000;clip-rule:nonzero;display:inline;overflow:visible;visibility:visible;opacity:0;isolation:auto;mix-blend-mode:normal;color-interpolation:sRGB;color-interpolation-filters:linearRGB;solid-color:#000000;solid-opacity:1;fill:#ffffff;fill-opacity:1;fill-rule:nonzero;stroke:none;stroke-width:23;stroke-linecap:round;stroke-linejoin:round;stroke-miterlimit:4;stroke-dasharray:none;stroke-dashoffset:0;stroke-opacity:1;marker:none;color-rendering:auto;image-rendering:auto;shape-rendering:auto;text-rendering:auto;enable-background:accumulate"
     id="rect4189"
     width="111.24339"
     height="36.825397"
     x="293.83597"
     y="198.7037" />
  <path
     style="color:#000000;font-style:normal;font-variant:normal;font-weight:normal;font-stretch:normal;font-size:medium;line-height:normal;font-family:sans-serif;text-indent:0;text-align:start;text-decoration:none;text-decoration-line:none;text-decoration-style:solid;text-decoration-color:#000000;letter-spacing:normal;word-spacing:normal;text-transform:none;direction:ltr;block-progression:tb;writing-mode:lr-tb;baseline-shift:baseline;text-anchor:start;white-space:normal;clip-rule:nonzero;display:inline;overflow:visible;visibility:visible;opacity:1;isolation:auto;mix-blend-mode:normal;color-interpolation:sRGB;color-interpolation-filters:linearRGB;solid-color:#000000;solid-opacity:1;fill:#ffffff;fill-opacity:0.80193242;fill-rule:evenodd;stroke:none;stroke-width:45;stroke-linecap:butt;stroke-linejoin:round;stroke-miterlimit:4;stroke-dasharray:none;stroke-dashoffset:0;stroke-opacity:1;color-rendering:auto;image-rendering:auto;shape-rendering:auto;text-rendering:auto;enable-background:accumulate"
     d="M 353.17969 179.37109 L 353.17969 192.31445 L 311.48242 192.31445 L 311.48242 237.31445 L 353.17969 237.31445 L 353.17969 250.16602 L 383.17969 250.16602 L 383.17969 237.31445 L 392.03711 237.31445 A 22.50225 22.50225 0 0 0 394.39844 237.19141 C 394.39844 237.19141 402.74721 236.72792 410.16602 240.16406 C 417.58482 243.6002 424.70703 246.96122 424.70703 271.74414 L 424.70703 464.1543 L 469.70703 464.1543 L 469.70703 271.74414 C 469.70703 233.77389 449.2442 208.67032 429.07812 199.33008 C 413.95358 192.32489 399.35179 191.95225 392.99609 192.20312 C 391.99788 192.24253 391.99311 192.26752 391.43164 192.31445 L 383.17969 192.31445 L 383.17969 179.37109 L 353.17969 179.37109 z "
     id="path4191" />
  <path
     style="fill:#ffffff;fill-opacity:1;fill-rule:evenodd"
     d="m 241.76758,482.91602 c -0.43218,-0.006 -0.88145,0.0165 -1.31641,0.0312 -14.28976,0.58967 -29.95198,12.38226 -43.92383,13.09375 -0.25418,0.004 -0.50642,0.003 -0.75976,0 l 0,31.3125 c 0.25333,0.003 0.50558,0.004 0.75976,0 13.97185,-0.71148 29.63407,-12.53531 43.92383,-13.125 13.91908,-0.47303 26.35893,10.2989 40.38477,10.59375 14.23697,0.11793 28.67962,-9.97656 43.92187,-9.5625 15.02993,0.23717 30.32992,11.154 45.67774,11.09375 15.0827,-0.35255 29.37526,-12.00962 45.09375,-12.125 7.49319,0.21421 9.23772,0.46458 13.32226,2.09375 6.60848,1.8188 13.31449,4.4505 19.89649,6.49023 5.84229,1.97617 11.70353,3.56405 17.57226,3.54102 15.0827,-0.35255 29.37526,-12.00962 45.09375,-12.125 8.97265,0 18.46114,3.63012 27.82032,6.82812 l 0,-31.28125 c -9.35915,-3.19798 -18.84726,-6.82812 -27.82032,-6.82812 -15.71848,0.11921 -30.01105,11.74123 -45.09375,12.09375 -4.92879,0.0193 -9.85214,-1.09942 -14.76367,-2.62696 l 0,-0.0293 c -0.53897,-0.15121 -1.08397,-0.33259 -1.625,-0.49415 -7.24762,-2.37763 -17.53479,-0.0912 -24.70159,-1.62377 -4.32456,-1.15996 -5.53417,-7.31958 -9.70075,-7.31958 -15.71848,0.11921 -30.01105,11.74123 -45.09375,12.09375 -15.34781,0.0602 -30.64782,-10.85659 -45.67774,-11.09375 -15.24224,-0.41408 -29.68489,9.68043 -43.92187,9.5625 -13.58638,-0.28564 -25.67104,-10.39297 -39.06836,-10.59375 z"
     id="path121-2"
     inkscape:connector-curvature="0"
     sodipodi:nodetypes="ccccccccccccccccccccccccccccc" />
</svg>

<svg width="580" height="580" viewBox="0 0 580 580" fill="none" xmlns="http://www.w3.org/2000/svg">
<g clip-path="url(#clip0)">
<path d="M67.3601 0.683184C26.0251 0.683184 2.78906 22.0542 2.78906 65.7192V515.842C2.78906 556.686 23.6841 578.071 64.9811 578.071H517.005C558.312 578.071 579.234 557.756 579.234 515.842V65.7192C579.234 23.1182 558.312 0.683184 515.713 0.683184C515.709 0.683184 67.2181 0.540184 67.3601 0.683184V0.683184Z" fill="#111111" stroke="#EEEEEE" stroke-width="3.408"/>
<path d="M47.0723 89.5896V278.947L93.5299 278.945V172.387H171.53V278.945H280.272V92.3021C281.555 74.6961 275.323 56.1719 243.82 56.1719H81.9158C68.7384 56.1719 47.0723 63.3155 47.0723 89.5896V89.5896Z" fill="white"/>
<path fill-rule="evenodd" clip-rule="evenodd" d="M353.709 319.188C353.277 319.181 352.843 319.185 352.408 319.199C338.118 319.793 322.456 331.616 308.484 332.324C308.23 332.328 307.978 332.327 307.725 332.324V363.606C307.978 363.609 308.23 363.641 308.484 363.637C322.456 363.049 338.118 350.926 352.408 350.512C366.327 349.922 378.767 360.901 392.793 361.137C394.415 361.151 396.04 361.019 397.668 360.799V329.453C396.04 329.674 394.415 329.807 392.793 329.793C379.207 329.509 367.106 319.391 353.709 319.188ZM527.486 319.199C516.813 319.28 506.798 324.672 496.746 328.24V359.553C506.798 355.985 516.813 350.592 527.486 350.512C531.324 350.498 535.258 351.172 539.234 352.19V320.883C535.258 319.871 531.324 319.199 527.486 319.199Z" fill="white"/>
<path fill-rule="evenodd" clip-rule="evenodd" d="M298.391 398.885C297.958 398.879 297.509 398.901 297.074 398.916C282.784 399.506 267.122 411.298 253.15 412.01C252.896 412.014 252.644 412.013 252.391 412.01V443.322C252.644 443.325 252.896 443.326 253.15 443.322C267.122 442.611 282.784 430.787 297.074 430.197C310.993 429.724 323.433 440.496 337.459 440.791C351.696 440.909 366.139 430.814 381.381 431.229C386.778 431.314 392.211 432.782 397.668 434.619V403.307C392.211 401.47 386.778 400.001 381.381 399.916C366.139 399.502 351.696 409.596 337.459 409.479C323.873 409.193 311.788 399.086 298.391 398.885ZM496.746 404.416V435.904C499.632 436.898 502.514 437.896 505.371 438.781C511.213 440.757 517.075 442.345 522.943 442.322C528.443 442.194 533.838 440.556 539.234 438.529V407.229C533.838 409.25 528.443 410.881 522.943 411.01C518.015 411.029 513.091 409.91 508.18 408.383V408.354C507.641 408.202 507.096 408.021 506.555 407.859C503.278 406.785 500.008 405.571 496.746 404.416Z" fill="white"/>
<path fill-rule="evenodd" clip-rule="evenodd" d="M353.18 179.371V192.314H311.482V237.314H353.18V250.166H383.18V237.314H392.037C392.826 237.315 393.614 237.274 394.398 237.191C394.398 237.191 402.747 236.728 410.166 240.164C417.585 243.6 424.707 246.961 424.707 271.744V464.154H469.707V271.744C469.707 233.774 449.244 208.67 429.078 199.33C413.954 192.325 399.352 191.952 392.996 192.203C391.998 192.243 391.993 192.268 391.432 192.314H383.18V179.371H353.18Z" fill="white" fill-opacity="0.801932"/>
<path fill-rule="evenodd" clip-rule="evenodd" d="M241.768 482.916C241.335 482.91 240.886 482.933 240.451 482.947C226.161 483.537 210.499 495.33 196.527 496.041C196.273 496.045 196.021 496.044 195.768 496.041V527.353C196.021 527.356 196.273 527.357 196.527 527.353C210.499 526.642 226.161 514.818 240.451 514.228C254.37 513.755 266.81 524.527 280.836 524.822C295.073 524.94 309.516 514.846 324.758 515.26C339.788 515.497 355.088 526.414 370.436 526.353C385.518 526.001 399.811 514.344 415.529 514.228C423.022 514.443 424.767 514.693 428.852 516.322C435.46 518.141 442.166 520.773 448.748 522.812C454.59 524.789 460.452 526.377 466.32 526.353C481.403 526.001 495.696 514.344 511.414 514.228C520.387 514.228 529.875 517.859 539.234 521.057V489.775C529.875 486.577 520.387 482.947 511.414 482.947C495.696 483.066 481.403 494.688 466.32 495.041C461.392 495.06 456.468 493.942 451.557 492.414V492.385C451.018 492.234 450.473 492.052 449.932 491.891C442.684 489.513 432.397 491.799 425.23 490.267C420.905 489.107 419.696 482.947 415.529 482.947C399.811 483.066 385.518 494.688 370.436 495.041C355.088 495.101 339.788 484.184 324.758 483.947C309.516 483.533 295.073 493.628 280.836 493.51C267.25 493.224 255.165 483.117 241.768 482.916V482.916Z" fill="white"/>
</g>
<defs>
<clipPath id="clip0">
<path d="M0 0H580V580H0V0Z" fill="white"/>
</clipPath>
</defs>
</svg>
